src/assets/images/icons/settings-4-line.svg

<svg width="24" height="24" viewBox="0 0 24 24" fill="none" xmlns="http://www.w3.org/2000/svg">
<g clip-path="url(#clip0_58_16768)">
<path d="M2 12.0001C2 11.1351 2.11 10.2971 2.316 9.49606C2.86847 9.5251 3.4182 9.40081 3.90444 9.13693C4.39068 8.87305 4.79448 8.47985 5.07121 8.00081C5.34793 7.52176 5.48681 6.97552 5.47247 6.42248C5.45814 5.86944 5.29117 5.33113 4.99 4.86706C6.19894 3.67763 7.69079 2.81556 9.325 2.36206C9.57599 2.85553 9.95864 3.26993 10.4306 3.55937C10.9025 3.84881 11.4454 4.00202 11.999 4.00202C12.5526 4.00202 13.0955 3.84881 13.5674 3.55937C14.0394 3.26993 14.422 2.85553 14.673 2.36206C16.3072 2.81556 17.7991 3.67763 19.008 4.86706C18.7065 5.33121 18.5393 5.86973 18.5248 6.42303C18.5104 6.97632 18.6493 7.52283 18.9262 8.00207C19.2031 8.48132 19.6071 8.87463 20.0937 9.13848C20.5802 9.40232 21.1303 9.52643 21.683 9.49706C21.889 10.2971 21.999 11.1351 21.999 12.0001C21.999 12.8651 21.889 13.7031 21.683 14.5041C21.1305 14.4748 20.5806 14.599 20.0942 14.8628C19.6078 15.1266 19.2039 15.5198 18.927 15.9988C18.6502 16.4779 18.5112 17.0242 18.5255 17.5774C18.5398 18.1305 18.7068 18.6689 19.008 19.1331C17.7991 20.3225 16.3072 21.1846 14.673 21.6381C14.422 21.1446 14.0394 20.7302 13.5674 20.4408C13.0955 20.1513 12.5526 19.9981 11.999 19.9981C11.4454 19.9981 10.9025 20.1513 10.4306 20.4408C9.95864 20.7302 9.57599 21.1446 9.325 21.6381C7.69079 21.1846 6.19894 20.3225 4.99 19.1331C5.29151 18.6689 5.45873 18.1304 5.47317 17.5771C5.48761 17.0238 5.3487 16.4773 5.07181 15.998C4.79492 15.5188 4.39085 15.1255 3.90431 14.8616C3.41776 14.5978 2.8677 14.4737 2.315 14.5031C2.11 13.7041 2 12.8661 2 12.0001ZM6.804 15.0001C7.434 16.0911 7.614 17.3461 7.368 18.5241C7.776 18.8141 8.21 19.0651 8.665 19.2741C9.58167 18.4529 10.7693 17.9992 12 18.0001C13.26 18.0001 14.438 18.4711 15.335 19.2741C15.79 19.0651 16.224 18.8141 16.632 18.5241C16.3794 17.32 16.5803 16.0651 17.196 15.0001C17.8106 13.9344 18.797 13.1332 19.966 12.7501C20.0122 12.2511 20.0122 11.749 19.966 11.2501C18.7966 10.8671 17.8099 10.0659 17.195 9.00006C16.5793 7.93499 16.3784 6.6801 16.631 5.47606C16.2231 5.18598 15.7889 4.93488 15.334 4.72606C14.4176 5.54699 13.2303 6.00067 12 6.00006C10.7693 6.00092 9.58167 5.54722 8.665 4.72606C8.21013 4.93488 7.77589 5.18599 7.368 5.47606C7.62056 6.6801 7.41972 7.93499 6.804 9.00006C6.18937 10.0657 5.20298 10.8669 4.034 11.2501C3.98775 11.749 3.98775 12.2511 4.034 12.7501C5.20335 13.133 6.19013 13.9342 6.805 15.0001H6.804ZM12 15.0001C11.2044 15.0001 10.4413 14.684 9.87868 14.1214C9.31607 13.5588 9 12.7957 9 12.0001C9 11.2044 9.31607 10.4413 9.87868 9.87874C10.4413 9.31613 11.2044 9.00006 12 9.00006C12.7956 9.00006 13.5587 9.31613 14.1213 9.87874C14.6839 10.4413 15 11.2044 15 12.0001C15 12.7957 14.6839 13.5588 14.1213 14.1214C13.5587 14.684 12.7956 15.0001 12 15.0001ZM12 13.0001C12.2652 13.0001 12.5196 12.8947 12.7071 12.7072C12.8946 12.5196 13 12.2653 13 12.0001C13 11.7348 12.8946 11.4805 12.7071 11.293C12.5196 11.1054 12.2652 11.0001 12 11.0001C11.7348 11.0001 11.4804 11.1054 11.2929 11.293C11.1054 11.4805 11 11.7348 11 12.0001C11 12.2653 11.1054 12.5196 11.2929 12.7072C11.4804 12.8947 11.7348 13.0001 12 13.0001Z" fill="#181D27"/>
</g>
<defs>
<clipPath id="clip0_58_16768">
<rect width="24" height="24" fill="white"/>
</clipPath>
</defs>
</svg>

<svg xmlns="http://www.w3.org/2000/svg" width="24" height="24" fill="none" viewBox="0 0 24 24"><g clip-path="url(#a)"><path fill="#181d27" d="M2 12c0-.865.11-1.703.316-2.504A3 3 0 0 0 4.99 4.867a10 10 0 0 1 4.335-2.505 3 3 0 0 0 5.348 0 10 10 0 0 1 4.335 2.505 3 3 0 0 0 2.675 4.63 10.036 10.036 0 0 1 0 5.007 3 3 0 0 0-2.675 4.63 10 10 0 0 1-4.335 2.504 3 3 0 0 0-5.348 0 10 10 0 0 1-4.335-2.505 3 3 0 0 0-2.675-4.63A10 10 0 0 1 2 12m4.804 3c.63 1.091.81 2.346.564 3.524q.613.436 1.297.75A5 5 0 0 1 12 18c1.26 0 2.438.471 3.335 1.274q.684-.314 1.297-.75A5 5 0 0 1 17.196 15a5 5 0 0 1 2.77-2.25 8 8 0 0 0 0-1.5A5 5 0 0 1 17.195 9a5 5 0 0 1-.564-3.524 8 8 0 0 0-1.297-.75A5 5 0 0 1 12 6a5 5 0 0 1-3.335-1.274 8 8 0 0 0-1.297.75A5 5 0 0 1 6.804 9a5 5 0 0 1-2.77 2.25 8 8 0 0 0 0 1.5A5 5 0 0 1 6.805 15zM12 15a3 3 0 1 1 0-6 3 3 0 0 1 0 6m0-2a1 1 0 1 0 0-2 1 1 0 0 0 0 2"/></g><defs><clipPath id="a"><path fill="#fff" d="M0 0h24v24H0z"/></clipPath></defs></svg>
